papirus/32x32/apps/google-play-music-desktop-player.svg

<?xml version="1.0" encoding="UTF-8" standalone="no"?>
<svg
   xmlns:dc="http://purl.org/dc/elements/1.1/"
   xmlns:cc="http://creativecommons.org/ns#"
   xmlns:rdf="http://www.w3.org/1999/02/22-rdf-syntax-ns#"
   xmlns:svg="http://www.w3.org/2000/svg"
   xmlns="http://www.w3.org/2000/svg"
   xmlns:sodipodi="http://sodipodi.sourceforge.net/DTD/sodipodi-0.dtd"
   xmlns:inkscape="http://www.inkscape.org/namespaces/inkscape"
   x="0px"
   y="0px"
   viewBox="0 0 32 32"
   hola_ext_inject="disabled"
   id="svg2"
   version="1.1"
   inkscape:version="0.91 r13725"
   sodipodi:docname="google-play-music-desktop-player.svg"
   width="32"
   height="32">
  <metadata
     id="metadata54">
    <rdf:RDF>
      <cc:Work
         rdf:about="">
        <dc:format>image/svg+xml</dc:format>
        <dc:type
           rdf:resource="http://purl.org/dc/dcmitype/StillImage" />
        <dc:title></dc:title>
      </cc:Work>
    </rdf:RDF>
  </metadata>
  <defs
     id="defs52" />
  <sodipodi:namedview
     pagecolor="#ffffff"
     bordercolor="#666666"
     borderopacity="1"
     objecttolerance="10"
     gridtolerance="10"
     guidetolerance="10"
     inkscape:pageopacity="0"
     inkscape:pageshadow="2"
     inkscape:window-width="1600"
     inkscape:window-height="853"
     id="namedview50"
     showgrid="false"
     inkscape:zoom="1"
     inkscape:cx="33.880258"
     inkscape:cy="13.887535"
     inkscape:window-x="0"
     inkscape:window-y="26"
     inkscape:window-maximized="1"
     inkscape:current-layer="svg2" />
  <linearGradient
     id="a"
     x1="98.985703"
     x2="98.985703"
     y1="183.6666"
     y2="7.9380002"
     gradientUnits="userSpaceOnUse"
     gradientTransform="matrix(0.2279924,0,0,0.22736347,1.4173528,2.1759583)">
    <stop
       offset="0"
       stop-color="#FFF"
       stop-opacity="0"
       id="stop11" />
    <stop
       offset="1"
       stop-color="#FFF"
       stop-opacity="0.1"
       id="stop13" />
  </linearGradient>
  <linearGradient
     id="b"
     x1="104.3169"
     x2="119.2413"
     y1="110.4006"
     y2="136.2504"
     gradientUnits="userSpaceOnUse"
     gradientTransform="matrix(0.22727311,0,0,0.22727311,1.4545378,2.1925796)">
    <stop
       offset="0"
       stop-color="#991700"
       stop-opacity="0"
       id="stop24" />
    <stop
       offset="1"
       stop-color="#991700"
       stop-opacity="0.1"
       id="stop26" />
  </linearGradient>
  <path
     style="fill:#eb4d27;fill-opacity:1"
     inkscape:connector-curvature="0"
     d="M 26.860038,14.426366 5.7390754,2.3624609 C 4.8366055,1.8531668 4.0291324,1.9009131 3.5383155,2.3783763 l 0,0 C 3.1899937,2.7126006 3,3.2537256 3,3.9540051 L 3,28.034069 c 0,0.70028 0.2058266,1.241406 0.5383155,1.575629 l 0,0 c 0.5066497,0.49338 1.29829,0.541126 2.2007599,0.01592 L 26.860038,17.56171 c 1.519949,-0.859434 1.519949,-2.259993 0,-3.135342 z"
     id="path8" />
  <path
     style="fill:#ffffff;fill-opacity:1;opacity:0.2"
     d="M 4.484375 2 C 4.1083459 2.0079577 3.784471 2.1401746 3.5390625 2.3789062 C 3.1907407 2.7131305 3 3.2528455 3 3.953125 L 3 4.953125 C 3 4.2528455 3.1907407 3.7131306 3.5390625 3.3789062 C 4.0298794 2.901443 4.8358114 2.8539872 5.7382812 3.3632812 L 26.859375 15.425781 C 27.393284 15.733263 27.729853 16.107173 27.888672 16.498047 C 28.181067 15.779576 27.84484 14.993317 26.859375 14.425781 L 5.7382812 2.3632812 C 5.2870463 2.1086342 4.8604041 1.9920423 4.484375 2 z "
     id="path4296" />
  <path
     style="opacity:1;fill:#ffd739;fill-opacity:1;stroke:none;stroke-width:8;stroke-linecap:round;stroke-linejoin:round;stroke-miterlimit:4;stroke-dasharray:none;stroke-opacity:1"
     d="M 15.5 5 C 14.139007 5 12.841896 5.2669797 11.648438 5.7382812 L 11.644531 5.7363281 A 10.5 10.5 0 0 0 11.609375 5.7519531 C 11.334637 5.8617082 11.067411 5.9854624 10.804688 6.1171875 A 10.5 10.5 0 0 0 10.65625 6.1894531 C 10.397585 6.3242811 10.147813 6.4717741 9.9023438 6.6269531 A 10.5 10.5 0 0 0 9.7539062 6.7167969 C 9.5230139 6.8681515 9.3017424 7.0325911 9.0839844 7.2011719 A 10.5 10.5 0 0 0 8.9003906 7.3378906 C 8.703534 7.497232 8.5187111 7.6688828 8.3339844 7.8417969 A 10.5 10.5 0 0 0 8.1210938 8.0351562 C 7.8927202 8.2609122 7.6757489 8.4963997 7.46875 8.7421875 A 10.5 10.5 0 0 0 7.4316406 8.7832031 C 6.5452525 9.8469738 5.8672725 11.089003 5.4550781 12.447266 A 10.5 10.5 0 0 0 5.4414062 12.498047 C 5.3471992 12.814176 5.2656313 13.136997 5.2011719 13.464844 A 10.5 10.5 0 0 0 5.1816406 13.585938 C 5.1276642 13.87849 5.0819159 14.172145 5.0527344 14.472656 A 10.5 10.5 0 0 0 5 15.5 C 5 15.830233 5.0190035 16.156069 5.0488281 16.478516 A 10.5 10.5 0 0 0 5.0722656 16.675781 C 5.1035636 16.956258 5.1462692 17.232503 5.1992188 17.505859 A 10.5 10.5 0 0 0 5.2265625 17.642578 C 5.4396951 18.669227 5.8019804 19.640303 6.2910156 20.533203 C 6.6289129 21.15015 7.0262552 21.727933 7.4765625 22.261719 C 8.5873006 23.578367 10.010409 24.623301 11.638672 25.267578 C 11.65551 25.274241 11.667648 25.263831 11.683594 25.267578 A 10.5 10.5 0 0 0 12.748047 25.621094 L 25.615234 18.273438 A 10.5 10.5 0 0 0 26 15.5 C 26 15.047145 25.961871 14.603763 25.90625 14.166016 A 10.5 10.5 0 0 0 25.865234 13.857422 L 25.857422 13.853516 C 25.06544 8.8388894 20.737267 5 15.5 5 z "
     id="path4287" />
  <circle
     style="fill:#ff8c00"
     cx="15.5"
     cy="15.5"
     id="circle21"
     r="6.5" />
  <path
     style="fill:#000000;fill-opacity:1;opacity:0.3"
     d="M 27.888672 15.498047 C 27.730086 15.887722 27.393859 16.260284 26.859375 16.5625 L 5.7382812 28.625 C 4.8358114 29.150206 4.0457122 29.102755 3.5390625 28.609375 C 3.2065736 28.275152 3 27.733483 3 27.033203 L 3 28.033203 C 3 28.733483 3.2065736 29.275152 3.5390625 29.609375 C 4.0457122 30.102755 4.8358114 30.150206 5.7382812 29.625 L 26.859375 17.5625 C 27.845415 17.004957 28.181984 16.219926 27.888672 15.498047 z "
     id="path4301" />
  <path
     style="opacity:0.2;fill:#ffffff;fill-opacity:1;stroke:none;stroke-width:8;stroke-linecap:round;stroke-linejoin:round;stroke-miterlimit:4;stroke-dasharray:none;stroke-opacity:1"
     d="M 15.5 5 C 14.139007 5 12.841895 5.2669798 11.648438 5.7382812 L 11.644531 5.7363281 A 10.5 10.5 0 0 0 11.609375 5.7519531 C 11.334637 5.8617082 11.067411 5.9854624 10.804688 6.1171875 A 10.5 10.5 0 0 0 10.65625 6.1894531 C 10.397585 6.3242811 10.147813 6.4717741 9.9023438 6.6269531 A 10.5 10.5 0 0 0 9.7539062 6.7167969 C 9.523014 6.8681515 9.3017424 7.0325911 9.0839844 7.2011719 A 10.5 10.5 0 0 0 8.9003906 7.3378906 C 8.703534 7.497232 8.5187111 7.6688828 8.3339844 7.8417969 A 10.5 10.5 0 0 0 8.1210938 8.0351562 C 7.8927201 8.2609123 7.6757489 8.4963997 7.46875 8.7421875 A 10.5 10.5 0 0 0 7.4316406 8.7832031 C 6.5452525 9.8469738 5.8672725 11.089003 5.4550781 12.447266 A 10.5 10.5 0 0 0 5.4414062 12.498047 C 5.3471993 12.814176 5.2656313 13.136997 5.2011719 13.464844 A 10.5 10.5 0 0 0 5.1816406 13.585938 C 5.1276642 13.878489 5.0819159 14.172145 5.0527344 14.472656 A 10.5 10.5 0 0 0 5 15.5 C 5 15.671379 5.0162981 15.838661 5.0253906 16.007812 A 10.5 10.5 0 0 1 5.0527344 15.472656 C 5.0819156 15.172145 5.1276646 14.87849 5.1816406 14.585938 A 10.5 10.5 0 0 1 5.2011719 14.464844 C 5.2656313 14.136997 5.3471993 13.814176 5.4414062 13.498047 A 10.5 10.5 0 0 1 5.4550781 13.447266 C 5.8672725 12.089003 6.5452521 10.846974 7.4316406 9.7832031 A 10.5 10.5 0 0 1 7.46875 9.7421875 C 7.6757489 9.4963997 7.8927201 9.2609122 8.1210938 9.0351562 A 10.5 10.5 0 0 1 8.3339844 8.8417969 C 8.5187111 8.6688828 8.703534 8.497232 8.9003906 8.3378906 A 10.5 10.5 0 0 1 9.0839844 8.2011719 C 9.3017424 8.0325911 9.523014 7.8681515 9.7539062 7.7167969 A 10.5 10.5 0 0 1 9.9023438 7.6269531 C 10.147813 7.4717741 10.397585 7.3242811 10.65625 7.1894531 A 10.5 10.5 0 0 1 10.804688 7.1171875 C 11.067411 6.9854624 11.334637 6.8617082 11.609375 6.7519531 A 10.5 10.5 0 0 1 11.644531 6.7363281 L 11.648438 6.7382812 C 12.841895 6.2669797 14.139007 6 15.5 6 C 20.737267 6 25.065432 9.838883 25.857422 14.853516 L 25.865234 14.857422 A 10.5 10.5 0 0 1 25.90625 15.166016 C 25.947048 15.487106 25.960778 15.815862 25.974609 16.144531 A 10.5 10.5 0 0 0 26 15.5 C 26 15.047145 25.961871 14.603763 25.90625 14.166016 A 10.5 10.5 0 0 0 25.865234 13.857422 L 25.857422 13.853516 C 25.06544 8.838889 20.737267 5 15.5 5 z "
     id="path4306" />
</svg>

<?xml version="1.0" encoding="UTF-8" standalone="no"?>
<svg id="svg2" xmlns:rdf="http://www.w3.org/1999/02/22-rdf-syntax-ns#" xmlns="http://www.w3.org/2000/svg" hola_ext_inject="disabled" height="32" viewBox="0 0 32 32" width="32" version="1.1" y="0px" x="0px" xmlns:cc="http://creativecommons.org/ns#" xmlns:dc="http://purl.org/dc/elements/1.1/">
 <metadata id="metadata54">
  <rdf:RDF>
   <cc:Work rdf:about="">
    <dc:format>image/svg+xml</dc:format>
    <dc:type rdf:resource="http://purl.org/dc/dcmitype/StillImage"/>
    <dc:title/>
   </cc:Work>
  </rdf:RDF>
 </metadata>
 <path id="path8" fill="#eb4d27" d="m26.86 14.426-21.121-12.064c-0.9024-0.5088-1.7099-0.4611-2.2007 0.0164-0.3483 0.3342-0.5383 0.8753-0.5383 1.5756v24.08c0 0.70028 0.20583 1.2414 0.53832 1.5756 0.50665 0.49338 1.2983 0.54113 2.2008 0.01592l21.121-12.064c1.5199-0.85943 1.5199-2.26 0-3.1353z"/>
 <path id="path4296" opacity=".2" d="m4.4844 2c-0.3761 0.008-0.6999 0.1402-0.9453 0.3789-0.3484 0.3342-0.5391 0.8739-0.5391 1.5742v1c0-0.7003 0.1907-1.24 0.5391-1.5742 0.4908-0.4775 1.2967-0.5249 2.1992-0.0156l21.121 12.063c0.534 0.307 0.871 0.681 1.03 1.072 0.292-0.718-0.044-1.505-1.03-2.072l-21.121-12.063c-0.451-0.2544-0.8776-0.371-1.2536-0.363z" fill="#fff"/>
 <path id="path4287" d="m15.5 5c-1.361 0-2.658 0.267-3.852 0.7383l-0.003-0.002a10.5 10.5 0 0 0 -0.036 0.0157c-0.274 0.1097-0.542 0.2335-0.804 0.3652a10.5 10.5 0 0 0 -0.149 0.0723c-0.258 0.1348-0.508 0.2823-0.7537 0.4375a10.5 10.5 0 0 0 -0.1484 0.0898c-0.2309 0.1514-0.4522 0.3158-0.6699 0.4844a10.5 10.5 0 0 0 -0.1836 0.1367c-0.1969 0.1593-0.3817 0.331-0.5664 0.5039a10.5 10.5 0 0 0 -0.2129 0.1934c-0.2284 0.2257-0.4454 0.4612-0.6523 0.707a10.5 10.5 0 0 0 -0.0372 0.041c-0.8863 1.0638-1.5643 2.3058-1.9765 3.6638a10.5 10.5 0 0 0 -0.0137 0.051c-0.0942 0.316-0.1758 0.639-0.2402 0.967a10.5 10.5 0 0 0 -0.0196 0.121c-0.0539 0.292-0.0997 0.586-0.1289 0.887a10.5 10.5 0 0 0 -0.0527 1.027c0 0.33 0.019 0.656 0.0488 0.979a10.5 10.5 0 0 0 0.0235 0.197c0.0313 0.28 0.074 0.557 0.1269 0.83a10.5 10.5 0 0 0 0.0274 0.137c0.2131 1.026 0.5754 1.997 1.0644 2.89 0.3379 0.617 0.7353 1.195 1.1856 1.729 1.1107 1.316 2.5334 2.361 4.1624 3.006 0.017 0.006 0.029-0.004 0.045 0a10.5 10.5 0 0 0 1.064 0.353l12.867-7.348a10.5 10.5 0 0 0 0.385 -2.773c0-0.453-0.038-0.896-0.094-1.334a10.5 10.5 0 0 0 -0.041 -0.309l-0.008-0.003c-0.792-5.0151-5.12-8.854-10.357-8.854z" fill="#ffd739"/>
 <circle id="circle21" cy="15.5" cx="15.5" r="6.5" fill="#ff8c00"/>
 <path id="path4301" opacity=".2" d="m27.889 16.499c-0.15859 0.38968-0.49481 0.76224-1.0293 1.0645l-21.122 12.061c-0.9022 0.526-1.6923 0.478-2.1989-0.015-0.3325-0.334-0.5391-0.876-0.5391-1.576v1c0 0.70028 0.20657 1.2419 0.53906 1.5762 0.50665 0.49338 1.2967 0.54083 2.1992 0.01563l21.121-12.062c0.98604-0.55754 1.3226-1.3426 1.0293-2.0645z"/>
 <path id="path4306" opacity=".2" d="m15.5 5c-1.361 0-2.658 0.267-3.852 0.7383l-0.003-0.002a10.5 10.5 0 0 0 -0.036 0.0157c-0.274 0.1097-0.542 0.2335-0.804 0.3652a10.5 10.5 0 0 0 -0.149 0.0723c-0.258 0.1348-0.508 0.2823-0.7537 0.4375a10.5 10.5 0 0 0 -0.1484 0.0898c-0.2309 0.1514-0.4522 0.3158-0.6699 0.4844a10.5 10.5 0 0 0 -0.1836 0.1367c-0.1969 0.1593-0.3817 0.331-0.5664 0.5039a10.5 10.5 0 0 0 -0.2129 0.1934c-0.2284 0.2257-0.4454 0.4612-0.6523 0.707a10.5 10.5 0 0 0 -0.0372 0.041c-0.8863 1.0638-1.5643 2.3058-1.9765 3.6638a10.5 10.5 0 0 0 -0.0137 0.051c-0.0942 0.316-0.1758 0.639-0.2402 0.967a10.5 10.5 0 0 0 -0.0196 0.121c-0.0539 0.292-0.0997 0.586-0.1289 0.887a10.5 10.5 0 0 0 -0.0527 1.027c0 0.171 0.0163 0.339 0.0254 0.508a10.5 10.5 0 0 1 0.0273 -0.535c0.0292-0.301 0.075-0.595 0.1289-0.887a10.5 10.5 0 0 1 0.0196 -0.121c0.0644-0.328 0.146-0.651 0.2402-0.967a10.5 10.5 0 0 1 0.0137 -0.051c0.4122-1.358 1.0902-2.6 1.9765-3.6638a10.5 10.5 0 0 1 0.0372 -0.041c0.2069-0.2458 0.4239-0.4813 0.6523-0.707a10.5 10.5 0 0 1 0.2129 -0.1934c0.1847-0.1729 0.3695-0.3446 0.5664-0.5039a10.5 10.5 0 0 1 0.1836 -0.1367c0.2177-0.1686 0.439-0.333 0.6699-0.4844a10.5 10.5 0 0 1 0.1484 -0.0898c0.2457-0.1552 0.4957-0.3027 0.7537-0.4375a10.5 10.5 0 0 1 0.149 -0.0723c0.262-0.1317 0.53-0.2555 0.804-0.3652a10.5 10.5 0 0 1 0.036 -0.0157l0.003 0.002c1.194-0.4713 2.491-0.7383 3.852-0.7383 5.237 0 9.565 3.8389 10.357 8.854l0.008 0.003a10.5 10.5 0 0 1 0.041 0.309c0.041 0.321 0.055 0.65 0.069 0.979a10.5 10.5 0 0 0 0.025 -0.645c0-0.453-0.038-0.896-0.094-1.334a10.5 10.5 0 0 0 -0.041 -0.309l-0.008-0.003c-0.792-5.0151-5.12-8.854-10.357-8.854z" fill="#fff"/>
</svg>
